dist/images/partners/akfen.svg

<svg width="148" height="32" viewBox="0 0 148 32" fill="none" xmlns="http://www.w3.org/2000/svg">
<path d="M29.3369 0.0994873C29.5174 0.162144 29.6967 0.228663 29.8785 0.286932C31.0978 0.677004 31.866 1.83011 31.8739 3.03946C31.8841 4.5886 31.8854 6.13801 31.8736 7.68715C31.8639 8.96582 31.5188 10.1673 30.8859 11.2703C30.2669 12.3489 29.4429 13.2526 28.3641 13.9082C27.4556 14.4604 26.5062 14.8976 25.432 15.0033C25.0567 15.0402 24.6803 15.0854 24.3042 15.0866C21.9713 15.0943 19.6384 15.0905 17.3055 15.0905C17.1449 15.0905 16.9843 15.0905 16.7835 15.0905C16.773 14.949 16.7555 14.8241 16.7554 14.6991C16.754 10.8698 16.7435 7.04047 16.7608 3.21129C16.7661 2.06915 17.2538 1.13991 18.2436 0.52703C18.5055 0.364859 18.8335 0.309485 19.1294 0.200055C19.1887 0.178116 19.2394 0.133624 19.294 0.0994873C22.6417 0.0994873 25.9892 0.0994873 29.3369 0.0994873Z" fill="#898989"/>
<path d="M0 23.8811C0.0636048 23.5535 0.125888 23.2257 0.191078 22.8985C0.455804 21.5704 1.04428 20.4056 1.9343 19.3807C2.60648 18.6066 3.39916 17.993 4.31544 17.5468C5.31337 17.0609 6.37264 16.7897 7.49083 16.7887C9.85399 16.7865 12.2171 16.788 14.5803 16.788C14.7414 16.788 14.9025 16.788 15.1076 16.788C15.118 16.9252 15.1358 17.0497 15.1359 17.1743C15.1374 21.0928 15.1531 25.0114 15.127 28.9297C15.1194 30.0485 14.4204 31.1561 13.1798 31.5883C13.0394 31.6373 12.9088 31.7147 12.7738 31.7789C9.3381 31.7789 5.90238 31.7789 2.46667 31.7789C2.42684 31.746 2.3917 31.6936 2.34659 31.6831C1.24373 31.4265 0.5291 30.757 0.187555 29.6848C0.129941 29.5039 0.0628119 29.3258 0 29.1464C0 27.3913 0 25.6362 0 23.8811Z" fill="#898989"/>
<path d="M23.5216 31.779C23.3109 31.7171 23.1027 31.6439 22.889 31.595C20.2672 30.9956 18.4021 29.4984 17.3571 27.0077C17.07 26.3234 16.8614 25.6206 16.8476 24.8832C16.802 22.4624 16.7825 20.0413 16.7539 17.6203C16.7509 17.3599 16.7535 17.0997 16.7535 16.7879C16.9606 16.7879 17.1315 16.7879 17.3025 16.7879C21.1763 16.7879 25.0501 16.8 28.9239 16.7815C30.2894 16.775 31.4734 17.7208 31.7818 19.0398C31.8436 19.304 31.8711 19.5822 31.8716 19.8541C31.8778 22.8212 31.8696 25.7885 31.8786 28.7557C31.882 29.8606 31.228 31.2167 29.8314 31.6023C29.7174 31.6338 29.6182 31.7188 29.5121 31.779C27.5153 31.779 25.5184 31.779 23.5216 31.779Z" fill="#898989"/>
<path d="M8.19286 0.0994873C8.44781 0.162495 8.7002 0.238931 8.95806 0.28623C10.3902 0.549056 11.6144 1.20063 12.6876 2.17753C13.945 3.32212 14.6575 4.75481 15.0207 6.38188C15.0924 6.70367 15.1311 7.03969 15.1323 7.3693C15.1413 9.85321 15.1372 12.3372 15.1363 14.821C15.1363 14.892 15.1267 14.9631 15.1177 15.0906C14.9365 15.0906 14.7663 15.0906 14.596 15.0906C10.6651 15.0906 6.73409 15.0877 2.80302 15.0924C1.52651 15.0938 0.332031 14.0421 0.100164 12.7692C0.0868619 12.696 0.0342691 12.6301 0 12.5607C0 9.28455 0 6.0083 0 2.73214C0.0342691 2.66361 0.0846596 2.59849 0.100341 2.52601C0.328155 1.47206 0.925969 0.729482 1.9433 0.335988C2.14715 0.257183 2.351 0.178292 2.55477 0.0994873C4.4341 0.0994873 6.31352 0.0994873 8.19286 0.0994873Z" fill="#898989"/>
<path d="M148 26.0751C147.751 26.2651 147.481 26.3487 147.156 26.3394C146.364 26.3169 145.571 26.3385 144.778 26.3275C144.583 26.3249 144.388 26.2659 144.154 26.226C144.113 25.9239 144.048 25.6577 144.046 25.3915C144.039 21.9992 144.046 18.6068 144.038 15.2145C144.037 14.3062 143.703 13.489 143.151 12.7884C142.664 12.1692 141.958 11.8279 141.192 11.6895C139.682 11.417 138.218 11.5934 136.851 12.3151C136.208 12.6543 135.618 13.0863 135.155 13.6515C135.024 13.8113 134.964 14.0728 134.963 14.2879C134.952 17.8703 134.955 21.4527 134.955 25.0351C134.955 25.3566 134.955 25.6779 134.955 26.0476C134.865 26.1226 134.755 26.2145 134.612 26.3321C133.638 26.3321 132.626 26.3379 131.614 26.3264C131.45 26.3246 131.287 26.2456 131.115 26.1998C131.106 26.0282 131.092 25.8999 131.092 25.7715C131.092 20.0982 131.092 14.4247 131.09 8.75128C131.09 8.52838 131.072 8.3067 131.365 8.1799C132.193 8.1799 133.058 8.18253 133.924 8.17833C134.195 8.17701 134.36 8.29802 134.424 8.55673C134.515 8.91714 134.601 9.27877 134.693 9.63866C134.719 9.74089 134.763 9.83865 134.797 9.93659C135.387 9.54458 135.925 9.16312 136.486 8.81998C137.218 8.37244 138.029 8.11365 138.876 8.0137C139.511 7.93884 140.158 7.88987 140.795 7.92673C142.865 8.04634 144.74 8.65396 146.161 10.2602C146.989 11.1967 147.462 12.3153 147.723 13.5228C147.82 13.9707 147.844 14.4338 147.909 14.8889C147.92 14.964 147.969 15.0337 148 15.1059C148 18.7622 148 22.4186 148 26.0751Z" fill="#898989"/>
<path d="M125.535 19.0636C120.645 19.0636 115.835 19.0636 111.003 19.0636C111.268 20.2347 111.957 21.0886 112.858 21.7783C113.927 22.5958 115.158 22.9241 116.502 22.9311C117.569 22.9367 118.617 22.8622 119.644 22.5702C120.627 22.2908 121.503 21.8069 122.306 21.1842C122.432 21.0875 122.559 20.9949 122.737 20.862C122.917 21.0486 123.111 21.2126 123.259 21.4107C123.758 22.0783 124.24 22.758 124.782 23.5065C124.602 23.6907 124.434 23.9166 124.217 24.0794C122.698 25.2169 121.019 25.9987 119.139 26.339C118.15 26.518 117.154 26.6437 116.152 26.5874C114.005 26.4666 112.003 25.8677 110.299 24.5193C108.585 23.1629 107.551 21.3802 107.121 19.2343C106.927 18.2675 106.888 17.293 106.971 16.3301C107.134 14.4318 107.791 12.7126 109.036 11.2247C110.49 9.48763 112.352 8.50117 114.555 8.08924C115.605 7.89285 116.653 7.87618 117.718 7.99175C119.155 8.14742 120.472 8.60428 121.674 9.37986C123.676 10.6721 124.878 12.5286 125.441 14.8171C125.753 16.0858 125.716 17.378 125.698 18.668C125.697 18.7941 125.597 18.9188 125.535 19.0636ZM121.736 15.4366C121.612 14.5148 121.284 13.7668 120.648 13.1761C119.104 11.7425 117.276 11.2753 115.216 11.6726C113.64 11.9769 112.367 12.7506 111.504 14.1225C111.256 14.5164 111.043 14.938 110.987 15.4366C114.595 15.4366 118.164 15.4366 121.736 15.4366Z" fill="#898989"/>
<path d="M61.4598 14.1436C61.7184 12.7262 60.795 12.0504 59.7685 11.7832C59.0908 11.6068 58.3691 11.5018 57.6709 11.5182C55.7896 11.5624 53.9694 11.8976 52.3648 12.9764C52.2578 13.0482 52.1282 13.0855 52.0181 13.1533C51.7126 13.3412 51.4415 13.2614 51.2498 13.0042C50.7358 12.3142 50.246 11.6064 49.7182 10.866C49.8641 10.6751 49.96 10.4625 50.1248 10.3482C51.2038 9.59917 52.3379 8.94057 53.5963 8.53856C54.4876 8.25379 55.399 8.03494 56.3439 8.00255C57.1017 7.97658 57.8632 7.88145 58.6161 7.92831C60.6202 8.05302 62.489 8.56752 63.9471 10.0618C64.6602 10.7928 65.0956 11.6851 65.2584 12.6781C65.3843 13.4451 65.4304 14.2314 65.4403 15.01C65.4648 16.9398 65.4594 18.8701 65.4442 20.8002C65.4349 21.9806 65.6405 23.1176 66.0156 24.2324C66.1516 24.6365 66.2544 25.0519 66.3831 25.4995C66.1951 25.618 66.054 25.7474 65.8877 25.8048C65.1014 26.0768 64.3085 26.3303 63.5167 26.5864C63.4637 26.6036 63.4003 26.5886 63.2804 26.5886C62.7313 25.9165 62.6418 24.9818 62.1567 24.202C62.0536 24.2458 61.9493 24.2626 61.8839 24.322C60.5992 25.4882 59.1014 26.2056 57.3755 26.4184C56.6424 26.5088 55.8968 26.6211 55.1655 26.5776C53.6656 26.4887 52.2225 26.1224 51.0304 25.1492C49.988 24.2984 49.3633 23.1918 49.1537 21.8432C49.0128 20.9367 49.0871 20.0662 49.3351 19.1936C49.6375 18.1299 50.2484 17.283 51.1095 16.6007C52.3044 15.6539 53.7145 15.2211 55.1795 14.95C55.9451 14.8085 56.7296 14.7715 57.5031 14.6696C58.289 14.5663 59.0711 14.4351 59.8567 14.3282C60.3853 14.2563 60.917 14.2053 61.4598 14.1436ZM61.4771 17.3944C61.3452 17.422 61.2362 17.4499 61.1254 17.4669C60.3284 17.5894 59.5299 17.7024 58.7342 17.8324C57.727 17.9968 56.7158 18.1463 55.7182 18.3574C55.1484 18.4779 54.5704 18.6448 54.0525 18.9032C53.2543 19.3014 52.8999 20.0366 52.9511 20.9046C53.0086 21.8746 53.7737 22.7214 54.7495 22.8122C55.6969 22.9002 56.6758 22.9411 57.6112 22.8031C59.1974 22.5692 60.4978 21.7501 61.477 20.4741C61.4771 19.4526 61.4771 18.4326 61.4771 17.3944Z" fill="#898989"/>
<path d="M75.6406 2.9142C75.6816 3.17509 75.7499 3.40904 75.7504 3.64318C75.7572 7.4887 75.7552 11.3343 75.7552 15.1798C75.7552 15.3396 75.7552 15.4995 75.7552 15.7243C75.8812 15.6224 75.9707 15.5613 76.0466 15.4868C78.1769 13.3963 80.2924 11.2905 82.4475 9.22571C82.8304 8.85881 83.1619 8.37098 83.7469 8.24874C83.8442 8.22838 83.9402 8.18275 84.0369 8.18248C85.4607 8.17906 86.8845 8.18109 88.3083 8.18354C88.3499 8.18362 88.3914 8.20214 88.4672 8.22022C88.4916 8.31623 88.5189 8.42267 88.5497 8.54307C87.9567 9.07776 87.3759 9.60149 86.7955 10.1255C86.7412 10.1744 86.689 10.2258 86.6361 10.2763C85.8768 11.0029 85.1217 11.7339 84.3575 12.4553C83.4042 13.3553 82.446 14.2501 81.4847 15.1414C81.1336 15.4669 80.7671 15.7762 80.3875 16.1108C80.6312 16.4054 80.8416 16.6762 81.0689 16.9321C81.8011 17.7562 82.5468 18.5685 83.2734 19.3976C84.1794 20.4313 85.0673 21.4806 85.9716 22.5158C86.4872 23.1059 87.0215 23.6797 87.5441 24.2638C87.9886 24.7605 88.435 25.256 88.8652 25.765C88.9478 25.8628 88.958 26.0213 89.0215 26.2121C88.8116 26.2595 88.6514 26.326 88.4907 26.3272C87.2577 26.336 86.0246 26.3434 84.7918 26.326C84.3311 26.3195 83.9564 26.1208 83.6542 25.7394C82.8657 24.744 82.0403 23.7777 81.2422 22.7899C80.5998 21.9946 79.9808 21.1804 79.3414 20.3827C78.9169 19.8531 78.4743 19.3381 78.0413 18.8152C77.941 18.694 77.8476 18.567 77.7159 18.3977C77.0611 18.8997 76.4148 19.3954 75.7551 19.9012C75.7551 21.7689 75.7552 23.6397 75.755 25.5108C75.7549 26.1909 75.6165 26.3315 74.947 26.332C74.1397 26.3324 73.3322 26.3404 72.5252 26.3262C72.3193 26.3226 72.1148 26.2473 71.9072 26.2044C71.9072 18.4808 71.9072 10.8208 71.9072 3.07882C72.0231 3.03257 72.1708 2.92412 72.3198 2.922C73.3906 2.90735 74.4614 2.9142 75.6406 2.9142Z" fill="#898989"/>
<path d="M94.4436 26.2039C94.4436 21.3584 94.4436 16.593 94.4436 11.7838C93.747 11.6782 93.0676 11.5752 92.3166 11.4614C92.262 11.4068 92.1605 11.3055 92.0659 11.2111C92.0659 10.3642 92.0617 9.54555 92.0676 8.72697C92.0707 8.32172 92.2105 8.18535 92.6201 8.18096C93.206 8.17472 93.792 8.17937 94.4444 8.17937C94.4444 7.84301 94.4441 7.52806 94.4444 7.21311C94.4457 5.65019 95.0068 4.31157 96.1217 3.22217C96.9787 2.38481 98.0381 1.90769 99.2112 1.69058C99.6786 1.60406 100.163 1.48788 100.627 1.52753C101.528 1.60441 102.432 1.6697 103.317 1.92709C104.215 2.18833 105.033 2.59148 105.822 3.06737C105.968 3.15522 106.07 3.31581 106.203 3.45412C105.755 4.27111 105.33 5.03731 104.915 5.80832C104.778 6.06289 104.542 6.04447 104.365 5.95478C103.585 5.56006 102.757 5.29127 101.898 5.22835C100.987 5.16174 100.049 4.99229 99.189 5.56244C98.6244 5.93688 98.4269 6.48316 98.3193 7.07893C98.2584 7.41661 98.3083 7.77421 98.3083 8.1792C98.4948 8.1792 98.6505 8.1792 98.8062 8.1792C100.245 8.1792 101.684 8.17446 103.123 8.18447C103.329 8.18588 103.535 8.25827 103.768 8.30303C103.768 9.38189 103.774 10.4029 103.761 11.4238C103.76 11.5351 103.653 11.6451 103.592 11.7631C101.836 11.7631 100.105 11.7631 98.3381 11.7631C98.3381 16.5178 98.3381 21.2491 98.3381 25.9434C98.1622 26.2344 97.9438 26.3351 97.6579 26.3336C96.777 26.3289 95.8959 26.3384 95.0151 26.3264C94.8368 26.3241 94.6591 26.2522 94.4436 26.2039Z" fill="#898989"/>
</svg>

<svg width="148" height="32" fill="none" xmlns="http://www.w3.org/2000/svg"><path d="M29.337.1c.18.062.36.129.541.187 1.22.39 1.988 1.543 1.996 2.752.01 1.55.011 3.099 0 4.648a7.233 7.233 0 01-.988 3.583c-.62 1.079-1.443 1.983-2.522 2.638-.908.552-1.858.99-2.932 1.095-.375.037-.752.082-1.128.084-2.333.007-4.666.004-6.998.004h-.523c-.01-.142-.027-.267-.028-.392-.001-3.83-.011-7.659.006-11.488.005-1.142.493-2.071 1.483-2.684.262-.162.59-.218.885-.327.06-.022.11-.066.165-.1h10.043zM0 23.881c.064-.328.126-.655.191-.983.265-1.328.853-2.492 1.743-3.517a7.443 7.443 0 012.381-1.834c.998-.486 2.058-.757 3.176-.758 2.363-.003 4.726-.001 7.09-.001h.527c.01.137.028.262.028.386.001 3.919.017 7.837-.009 11.756-.008 1.119-.707 2.226-1.947 2.658-.14.05-.271.127-.406.19H2.467c-.04-.032-.075-.084-.12-.095-1.103-.256-1.818-.926-2.16-1.998-.057-.181-.124-.36-.187-.539v-5.265zm23.522 7.898c-.211-.062-.42-.135-.633-.184-2.622-.6-4.487-2.097-5.532-4.587-.287-.685-.496-1.387-.51-2.125-.045-2.42-.065-4.842-.093-7.263-.003-.26 0-.52 0-.832h.548c3.874 0 7.748.012 11.622-.006a2.926 2.926 0 012.858 2.258c.062.264.09.542.09.814.006 2.967-.002 5.934.007 8.902.003 1.105-.651 2.46-2.048 2.846-.114.032-.213.117-.319.177h-5.99zM8.193.1c.255.062.507.139.765.186 1.432.263 2.656.915 3.73 1.892 1.257 1.144 1.97 2.577 2.333 4.204.071.322.11.658.111.987.01 2.484.005 4.968.004 7.452 0 .071-.01.142-.018.27h-.522c-3.93 0-7.862-.003-11.793.001C1.527 15.094.332 14.042.1 12.77c-.013-.073-.066-.139-.1-.208v-9.83c.034-.068.085-.134.1-.206C.328 1.472.926.729 1.943.336l.612-.237h5.638zM148 26.075a1.26 1.26 0 01-.844.264c-.792-.022-1.585 0-2.378-.011-.195-.003-.39-.062-.624-.102-.041-.302-.106-.568-.108-.834-.007-3.393 0-6.785-.008-10.178-.001-.908-.335-1.725-.887-2.426-.487-.619-1.193-.96-1.959-1.098-1.51-.273-2.974-.097-4.341.625-.643.34-1.233.771-1.696 1.337-.131.16-.191.42-.192.636-.011 3.582-.008 7.165-.008 10.747v1.013c-.09.075-.2.167-.343.284-.974 0-1.986.006-2.998-.006-.164-.001-.327-.08-.499-.126-.009-.172-.023-.3-.023-.428 0-5.674 0-11.347-.002-17.02 0-.224-.018-.445.275-.572.828 0 1.693.003 2.559-.002.271-.001.436.12.5.379.091.36.177.722.269 1.082.026.102.07.2.104.298.59-.392 1.128-.774 1.689-1.117a5.861 5.861 0 012.39-.806c.635-.075 1.282-.124 1.919-.087 2.07.12 3.945.727 5.366 2.333.828.937 1.301 2.055 1.562 3.263.097.448.121.91.186 1.366.011.075.06.145.091.217v10.97zm-22.465-7.011h-14.532c.265 1.17.954 2.025 1.855 2.714 1.069.818 2.3 1.146 3.644 1.153 1.067.006 2.115-.069 3.142-.36.983-.28 1.859-.764 2.662-1.387.126-.097.253-.19.431-.322.18.187.374.35.522.549.499.667.981 1.347 1.523 2.095-.18.185-.348.41-.565.573-1.519 1.138-3.198 1.92-5.078 2.26-.989.179-1.985.305-2.987.248-2.147-.12-4.149-.72-5.853-2.068-1.714-1.356-2.748-3.139-3.178-5.285a10.25 10.25 0 01-.15-2.904c.163-1.898.82-3.617 2.065-5.105 1.454-1.737 3.316-2.724 5.519-3.136a10.748 10.748 0 013.163-.097 8.964 8.964 0 013.956 1.388c2.002 1.292 3.204 3.149 3.767 5.437.312 1.269.275 2.561.257 3.851-.001.126-.101.25-.163.396zm-3.799-3.627c-.124-.922-.452-1.67-1.088-2.26-1.544-1.434-3.372-1.902-5.432-1.504-1.576.304-2.849 1.078-3.712 2.45-.248.393-.461.815-.517 1.314h10.749zM61.46 14.144c.258-1.418-.665-2.094-1.691-2.36a7.723 7.723 0 00-2.098-.266c-1.881.044-3.702.38-5.306 1.458-.107.072-.237.11-.347.177-.305.188-.577.108-.768-.149-.514-.69-1.004-1.398-1.532-2.138.146-.19.242-.403.407-.518 1.079-.749 2.213-1.407 3.471-1.81.892-.284 1.803-.503 2.748-.535.758-.026 1.52-.122 2.272-.075 2.004.125 3.873.64 5.331 2.134a4.8 4.8 0 011.311 2.616c.126.767.172 1.553.182 2.332.025 1.93.02 3.86.004 5.79-.01 1.18.197 2.318.572 3.432.136.405.238.82.367 1.268-.188.118-.329.247-.495.305-.787.272-1.58.525-2.371.781-.053.018-.117.003-.237.003-.549-.672-.638-1.607-1.123-2.387-.103.044-.208.06-.273.12-1.285 1.166-2.783 1.884-4.508 2.096-.734.09-1.48.203-2.21.16-1.5-.09-2.944-.456-4.136-1.429-1.042-.85-1.667-1.957-1.876-3.306a6.097 6.097 0 01.181-2.65c.303-1.063.913-1.91 1.774-2.592 1.195-.947 2.605-1.38 4.07-1.651.766-.141 1.55-.178 2.324-.28.786-.104 1.568-.235 2.354-.342.528-.072 1.06-.123 1.603-.184zm.017 3.25c-.132.028-.24.056-.352.073-.797.122-1.595.235-2.39.365-1.008.165-2.02.314-3.017.525-.57.12-1.148.288-1.666.546-.798.398-1.152 1.134-1.1 2.002.057.97.822 1.816 1.797 1.907.948.088 1.927.13 2.862-.009 1.586-.234 2.887-1.053 3.866-2.329v-3.08zM75.64 2.914c.042.261.11.495.11.73.007 3.845.005 7.69.005 11.536v.544c.126-.102.216-.163.292-.237 2.13-2.09 4.245-4.197 6.4-6.261.383-.367.715-.855 1.3-.977.097-.02.193-.066.29-.067 1.424-.003 2.847 0 4.271.002.042 0 .083.018.16.036.024.096.05.203.082.323-.593.535-1.174 1.058-1.754 1.583-.055.048-.107.1-.16.15-.76.727-1.514 1.458-2.278 2.18-.954.9-1.912 1.794-2.873 2.685-.351.326-.718.635-1.097.97.243.294.454.565.68.821.733.824 1.479 1.637 2.205 2.466.906 1.033 1.794 2.083 2.699 3.118.515.59 1.05 1.164 1.572 1.748.445.497.891.992 1.321 1.501.083.098.093.256.157.447-.21.047-.37.114-.531.115a175.52 175.52 0 01-3.7-.001c-.46-.006-.835-.205-1.137-.587-.788-.995-1.614-1.961-2.412-2.95-.642-.794-1.261-1.609-1.9-2.406-.425-.53-.868-1.045-1.3-1.568-.101-.121-.194-.248-.326-.417l-1.96 1.503-.001 5.61c0 .68-.138.82-.808.821-.807 0-1.615.008-2.422-.006-.206-.003-.41-.079-.618-.122V3.08c.116-.046.264-.155.413-.157 1.07-.015 2.141-.008 3.32-.008zm18.804 23.29v-14.42l-2.127-.323a427.9 427.9 0 00-.251-.25c0-.847-.004-1.665.002-2.484.003-.405.142-.542.552-.546.586-.006 1.172-.002 1.824-.002v-.966c.002-1.563.563-2.901 1.678-3.99.857-.838 1.916-1.315 3.09-1.532.467-.087.951-.203 1.415-.163.901.076 1.805.142 2.69.4.898.26 1.716.663 2.505 1.14.146.087.248.248.381.386-.448.817-.873 1.583-1.288 2.354-.137.255-.373.236-.55.147-.78-.395-1.608-.664-2.467-.727-.911-.066-1.849-.236-2.709.334-.565.375-.762.921-.87 1.517-.06.338-.01.695-.01 1.1h.497c1.439 0 2.878-.005 4.317.005.206.002.412.074.645.119 0 1.079.006 2.1-.007 3.12-.001.112-.108.222-.169.34h-5.254v14.18c-.176.291-.394.392-.68.39-.881-.004-1.762.005-2.643-.007-.178-.002-.356-.074-.571-.122z" fill="#898989"/></svg>
